X:1
T:The Cape's in View
M:4/4
L:1/4
K:C
 c c c d| c G E G| c d e d| c4| e e e c| e g f e| d c B c| d4| e4|\
 d4| c2 G2| E2 G2| e e e d| c3 e| f e3| d2 c2| e4-| d4| e4| d3 d| c- d e- f|\
 g3 e| f d3| c2 B2| c4-| c4|
